billpay/water.svg

<svg width="48" height="48" viewBox="0 0 48 48" fill="none" xmlns="http://www.w3.org/2000/svg">
<mask id="mask0_3027_21368" style="mask-type:alpha" maskUnits="userSpaceOnUse" x="0" y="0" width="48" height="48">
<rect width="48" height="48" fill="#D9D9D9"/>
</mask>
<g mask="url(#mask0_3027_21368)">
<path d="M24 42.9996C19.5667 42.9996 15.7917 41.4663 12.675 38.3996C9.55833 35.3329 8 31.5996 8 27.1996C8 25.0996 8.40833 23.0913 9.225 21.1746C10.0417 19.2579 11.2 17.5663 12.7 16.0996L21.2 7.74961C21.6 7.38294 22.0417 7.09961 22.525 6.89961C23.0083 6.69961 23.5 6.59961 24 6.59961C24.5 6.59961 24.9917 6.69961 25.475 6.89961C25.9583 7.09961 26.4 7.38294 26.8 7.74961L35.3 16.0996C36.8 17.5663 37.9583 19.2579 38.775 21.1746C39.5917 23.0913 40 25.0996 40 27.1996C40 31.5996 38.4417 35.3329 35.325 38.3996C32.2083 41.4663 28.4333 42.9996 24 42.9996Z" fill="white"/>
</g>
</svg>

<svg width="48" height="48" viewBox="0 0 48 48" fill="none" xmlns="http://www.w3.org/2000/svg"><path d="M24 43q-6.65 0-11.325-4.6T8 27.2q0-3.15 1.225-6.025A15.6 15.6 0 0 1 12.7 16.1l8.5-8.35q.6-.55 1.325-.85T24 6.6t1.475.3 1.325.85l8.5 8.35a15.6 15.6 0 0 1 3.475 5.075A15.2 15.2 0 0 1 40 27.2q0 6.6-4.675 11.2T24 43" fill="#fff"/></svg>
